img/icons/workflow.svg

<svg xmlns:dc="http://purl.org/dc/elements/1.1/" xmlns:cc="http://creativecommons.org/ns#" xmlns:rdf="http://www.w3.org/1999/02/22-rdf-syntax-ns#" xmlns:svg="http://www.w3.org/2000/svg" xmlns="http://www.w3.org/2000/svg" xmlns:sodipodi="http://sodipodi.sourceforge.net/DTD/sodipodi-0.dtd" xmlns:inkscape="http://www.inkscape.org/namespaces/inkscape" version="1.1" x="0px" y="0px" viewBox="0 0 36 45"><g transform="translate(0,4)"><g transform="translate(263.34687,-2093.5564)"><path style="color:#000000;enable-background:accumulate;" d="M 15.53125 3 L 15.53125 8 L 17.53125 8 L 17.53125 11 L 8 11 L 8 12 L 8 15 L 6.03125 15 L 6.03125 20 L 8 20 L 8 24 L 9 24 L 12.71875 24 L 12.71875 28 L 10.78125 28 L 10.78125 33 L 15.78125 33 L 15.78125 28 L 13.71875 28 L 13.71875 24 L 18.0625 24 L 18.46875 24 L 18.46875 20 L 20.53125 20 L 20.53125 15 L 18.53125 15 L 18.53125 12 L 27 12 L 27 15 L 24.96875 15 L 24.96875 20 L 26.96875 20 L 26.96875 24 L 24.96875 24 L 24.96875 29 L 29.96875 29 L 29.96875 24 L 27.96875 24 L 27.96875 20 L 29.96875 20 L 29.96875 15 L 28 15 L 28 11.5 L 28 11 L 18.53125 11 L 18.53125 8 L 20.53125 8 L 20.53125 3 L 15.53125 3 z M 9 12 L 17.53125 12 L 17.53125 15 L 15.53125 15 L 15.53125 20 L 17.46875 20 L 17.46875 23 L 9 23 L 9 20 L 11.03125 20 L 11.03125 15 L 9 15 L 9 12 z " transform="translate(-263.34687,2089.5564)" fill="#000000" fill-opacity="1" stroke="none" marker="none" visibility="visible" display="inline" overflow="visible"/></g></g><text x="0" y="51" fill="#000000" font-size="5px" font-weight="bold" font-family="'Helvetica Neue', Helvetica, Arial-Unicode, Arial, Sans-serif">Created by mantisshrimpdesign</text><text x="0" y="56" fill="#000000" font-size="5px" font-weight="bold" font-family="'Helvetica Neue', Helvetica, Arial-Unicode, Arial, Sans-serif">from the Noun Project</text></svg>

<?xml version="1.0" encoding="UTF-8" standalone="no"?>
<svg
   xmlns:dc="http://purl.org/dc/elements/1.1/"
   xmlns:cc="http://creativecommons.org/ns#"
   xmlns:rdf="http://www.w3.org/1999/02/22-rdf-syntax-ns#"
   xmlns:svg="http://www.w3.org/2000/svg"
   xmlns="http://www.w3.org/2000/svg"
   xmlns:sodipodi="http://sodipodi.sourceforge.net/DTD/sodipodi-0.dtd"
   xmlns:inkscape="http://www.inkscape.org/namespaces/inkscape"
   version="1.1"
   x="0px"
   y="0px"
   viewBox="0 0 36 45"
   id="svg2"
   inkscape:version="0.91 r13725"
   sodipodi:docname="workflow.svg">
  <metadata
     id="metadata18">
    <rdf:RDF>
      <cc:Work
         rdf:about="">
        <dc:format>image/svg+xml</dc:format>
        <dc:type
           rdf:resource="http://purl.org/dc/dcmitype/StillImage" />
      </cc:Work>
    </rdf:RDF>
  </metadata>
  <defs
     id="defs16" />
  <sodipodi:namedview
     pagecolor="#ffffff"
     bordercolor="#666666"
     borderopacity="1"
     objecttolerance="10"
     gridtolerance="10"
     guidetolerance="10"
     inkscape:pageopacity="0"
     inkscape:pageshadow="2"
     inkscape:window-width="1615"
     inkscape:window-height="1026"
     id="namedview14"
     showgrid="false"
     inkscape:zoom="5.2444444"
     inkscape:cx="17.234365"
     inkscape:cy="22.5"
     inkscape:window-x="65"
     inkscape:window-y="24"
     inkscape:window-maximized="1"
     inkscape:current-layer="svg2" />
  <g
     transform="matrix(1.5275424,0,0,1.5275424,-9.0927569,1.476695)"
     id="g4">
    <g
       transform="translate(263.34687,-2093.5564)"
       id="g6">
      <path
         style="color:#000000;display:inline;overflow:visible;visibility:visible;fill:#000000;fill-opacity:1;stroke:none;marker:none;enable-background:accumulate"
         d="m 15.53125,3 0,5 2,0 0,3 L 8,11 l 0,1 0,3 -1.96875,0 0,5 L 8,20 l 0,4 1,0 3.71875,0 0,4 -1.9375,0 0,5 5,0 0,-5 -2.0625,0 0,-4 4.34375,0 0.40625,0 0,-4 2.0625,0 0,-5 -2,0 0,-3 8.46875,0 0,3 -2.03125,0 0,5 2,0 0,4 -2,0 0,5 5,0 0,-5 -2,0 0,-4 2,0 0,-5 L 28,15 l 0,-3.5 0,-0.5 -9.46875,0 0,-3 2,0 0,-5 -5,0 z M 9,12 l 8.53125,0 0,3 -2,0 0,5 1.9375,0 0,3 L 9,23 l 0,-3 2.03125,0 0,-5 L 9,15 9,12 Z"
         transform="translate(-263.34687,2089.5564)"
         visibility="visible"
         display="inline"
         overflow="visible"
         id="path8"
         inkscape:connector-curvature="0" />
    </g>
  </g>
</svg>
